X: 4
T: Sergeant Early's Dream
Z: Dalta na bPíob
S: https://thesession.org/tunes/1651#setting30818
R: reel
M: 4/4
L: 1/8
K: Ador
gf|eAAB cBce|dBGA BcdB|AEAB cBcd|eaab c'bag|
eAAB cege|dBGA BcdB|AEAf gbge|dcBe A2||
cd|eaag a2 ag|eaab c'bag|eggf g2 ga|bc'ba gfed|
eaag agag|eaab c'baf|gbaf gedB|cABe A2||
